packages/assets/static/images/icons/flickr-logo.svg

<svg width="24" height="24" viewBox="0 0 24 24" xmlns="http://www.w3.org/2000/svg">
<path d="M6.50488 7.30298C9.13123 7.30298 11.2607 9.40639 11.2607 12.0002C11.2605 14.5939 9.13111 16.6965 6.50488 16.6965C3.87878 16.6964 1.7502 14.5938 1.75 12.0002C1.75 9.40648 3.87866 7.30313 6.50488 7.30298ZM17.4951 7.30298C20.1209 7.30298 22.2498 9.40556 22.25 11.9993C22.25 14.5931 20.121 16.6965 17.4951 16.6965C14.8688 16.6965 12.7393 14.5931 12.7393 11.9993C12.7394 9.40561 14.8689 7.30306 17.4951 7.30298ZM6.50488 9.01196C4.8022 9.01211 3.45801 10.3698 3.45801 12.0002C3.4582 13.6307 4.80252 14.9884 6.50488 14.9885C8.20737 14.9885 9.55156 13.6308 9.55176 12.0002C9.55176 10.3697 8.2077 9.01196 6.50488 9.01196ZM17.4951 9.01099C15.7923 9.01107 14.4484 10.3691 14.4482 11.9993C14.4482 13.6298 15.7924 14.9884 17.4951 14.9885C19.1972 14.9885 20.542 13.6301 20.542 11.9993C20.5418 10.3688 19.1973 9.01099 17.4951 9.01099Z"/>
</svg>

<svg viewBox="0 0 24 24" xmlns="http://www.w3.org/2000/svg" aria-hidden="true" fill="currentColor"><path d="M6.505 7.303c2.626 0 4.756 2.103 4.756 4.697s-2.13 4.697-4.756 4.697S1.75 14.594 1.75 12s2.129-4.697 4.755-4.697m10.99 0c2.626 0 4.755 2.103 4.755 4.696 0 2.594-2.129 4.698-4.755 4.698s-4.756-2.104-4.756-4.698c0-2.593 2.13-4.696 4.756-4.696M6.505 9.012c-1.703 0-3.047 1.358-3.047 2.988s1.345 2.988 3.047 2.989S9.552 13.63 9.552 12 8.208 9.012 6.505 9.012m10.99-.001c-1.703 0-3.047 1.358-3.047 2.988s1.344 2.99 3.047 2.99c1.702 0 3.047-1.359 3.047-2.99 0-1.63-1.345-2.988-3.047-2.988"/></svg>
